X: 800
T: Possum Up a Gum Stump [C]
B: jims roots
M:2/4
L:1/8
Q: 1/4=100
K:C
V:1 
"C"e4g4 | geag egg2 | e4 g2ga | "G"gedc "C"Acc2 |
"C"e4g4 | geag e2gg | c'2b2 a2g2 | "G"egag "C"edc2 :|
|: "C"E(cc2) c3d | cAGc ABc2 | G,CEG ABcd | cAGE "D"DA,"C"C2 |
"C"G,CEG ABcd | cAGc Acc2 | e4 e3d | cAGE "G"DC"C"C2 :|
% abcbook-tune_id 6298c27988604bd50adc10d8


% abcbook-boost 0
% abcbook-tablature 
% abcbook-transpose 
% abcbook-lastupdated 1654178426626
% abcbook-soundfonts 
% abcbook-repeats 1


